src/lib/packages/icons/src/assets/line/caret-right-square.svg

<svg width="24" height="24" viewBox="0 0 24 24" fill="none" xmlns="http://www.w3.org/2000/svg">
<path d="M17.625 2.25H6.375C3.715 2.25 2.25 3.715 2.25 6.375V17.625C2.25 20.285 3.715 21.75 6.375 21.75H17.625C20.285 21.75 21.75 20.285 21.75 17.625V6.375C21.75 3.715 20.285 2.25 17.625 2.25ZM20.25 17.625C20.25 19.465 19.465 20.25 17.625 20.25H6.375C4.535 20.25 3.75 19.465 3.75 17.625V6.375C3.75 4.535 4.535 3.75 6.375 3.75H17.625C19.465 3.75 20.25 4.535 20.25 6.375V17.625ZM11.7849 7.63892C11.2919 7.22292 10.6199 7.13403 10.0359 7.40503C9.44789 7.67803 9.08301 8.2521 9.08301 8.9021V15.0991C9.08301 15.7491 9.44789 16.3229 10.0359 16.5959C10.2599 16.6999 10.497 16.751 10.731 16.751C11.108 16.751 11.4799 16.6181 11.7849 16.3611L15.2471 13.4419C15.6731 13.0829 15.917 12.558 15.917 12C15.917 11.442 15.6731 10.9171 15.2471 10.5591L11.7849 7.63892ZM14.28 12.2949L10.8181 15.2151C10.7991 15.2291 10.752 15.2741 10.668 15.2361C10.611 15.2101 10.583 15.1641 10.583 15.0991V8.9021C10.583 8.8381 10.611 8.79189 10.668 8.76489C10.691 8.75389 10.713 8.75 10.73 8.75C10.776 8.75 10.8051 8.77491 10.8181 8.78491L14.28 11.7051C14.398 11.8051 14.417 11.932 14.417 11.999C14.417 12.066 14.398 12.1949 14.28 12.2949Z" fill="currentColor"/>
</svg>

<svg xmlns="http://www.w3.org/2000/svg" width="24" height="24" fill="none"><path fill="currentColor" d="M17.625 2.25H6.375c-2.66 0-4.125 1.465-4.125 4.125v11.25c0 2.66 1.465 4.125 4.125 4.125h11.25c2.66 0 4.125-1.465 4.125-4.125V6.375c0-2.66-1.465-4.125-4.125-4.125Zm2.625 15.375c0 1.84-.785 2.625-2.625 2.625H6.375c-1.84 0-2.625-.785-2.625-2.625V6.375c0-1.84.785-2.625 2.625-2.625h11.25c1.84 0 2.625.785 2.625 2.625v11.25Zm-8.465-9.986a1.628 1.628 0 0 0-1.75-.234 1.634 1.634 0 0 0-.952 1.497V15.1c0 .65.365 1.224.953 1.497a1.632 1.632 0 0 0 1.749-.235l3.462-2.92a1.88 1.88 0 0 0 .67-1.441c0-.558-.244-1.083-.67-1.44L11.785 7.64Zm2.495 4.656-3.462 2.92c-.019.014-.066.06-.15.021-.057-.026-.085-.072-.085-.137V8.902a.14.14 0 0 1 .085-.137.146.146 0 0 1 .062-.015c.046 0 .075.025.088.035l3.462 2.92a.386.386 0 0 1 0 .59Z"/></svg>
